svg/u1f54e.svg

<svg viewBox="0 0 128 128" xmlns="http://www.w3.org/2000/svg">
  <g>
    <path d="M116,4H12c-4.42,0-8,3.58-8,8v104c0,4.42,3.58,8,8,8h104c4.42,0,8-3.58,8-8V12 C124,7.58,120.42,4,116,4z" fill="#8E24AA"/>
    <path d="M109.7,4H11.5C7.37,4.03,4.03,7.37,4,11.5v97.9c-0.01,4.14,3.34,7.49,7.48,7.5c0.01,0,0.01,0,0.02,0 h98.1c4.14,0.01,7.49-3.34,7.5-7.48c0-0.01,0-0.01,0-0.02V11.5c0.09-4.05-3.13-7.41-7.18-7.5C109.85,4,109.77,4,109.7,4z" fill="#AB47BC"/>
    <path d="M33.2,31.1c0.1-2.9-1.8-5.8-2.6-6.9c-0.08-0.19-0.3-0.28-0.5-0.2c-0.09,0.04-0.16,0.11-0.2,0.2 c-0.8,1.1-2.7,4-2.6,6.9l0,0c0,2.7,1.3,4.8,3,4.8l0,0C31.9,36,33.3,33.8,33.2,31.1z" fill="#FAFAFA"/>
    <path d="M44.5,31.1c0.1-2.9-1.8-5.8-2.6-6.9c-0.08-0.19-0.3-0.28-0.5-0.2c-0.09,0.04-0.16,0.11-0.2,0.2 c-0.8,1.1-2.7,4-2.6,6.9l0,0c0,2.7,1.3,4.8,3,4.8l0,0C43.2,36,44.5,33.8,44.5,31.1z" fill="#FAFAFA"/>
    <path d="M55.8,31.1c0.1-2.9-1.8-5.8-2.6-6.9c-0.08-0.19-0.3-0.28-0.5-0.2c-0.09,0.04-0.16,0.11-0.2,0.2 c-0.8,1.1-2.7,4-2.6,6.9l0,0c0,2.7,1.3,4.8,3,4.8l0,0C54.4,36,55.8,33.8,55.8,31.1z" fill="#FAFAFA"/>
    <path d="M67,23.1c0.1-2.9-1.8-5.8-2.6-6.9c-0.08-0.19-0.3-0.28-0.5-0.2c-0.09,0.04-0.16,0.11-0.2,0.2 c-0.8,1.1-2.7,4-2.6,6.9l0,0c0,2.7,1.3,4.8,3,4.8l0,0C65.7,28,67,25.8,67,23.1z" fill="#FAFAFA"/>
    <path d="M78.2,31.1c0.1-2.9-1.8-5.8-2.6-6.9c-0.08-0.19-0.3-0.28-0.5-0.2c-0.09,0.04-0.16,0.11-0.2,0.2 c-0.8,1.1-2.7,4-2.6,6.9l0,0c0,2.7,1.3,4.8,3,4.8l0,0C76.9,36,78.3,33.8,78.2,31.1z" fill="#FAFAFA"/>
    <path d="M89.5,31.1c0.1-2.9-1.8-5.8-2.6-6.9c-0.08-0.19-0.3-0.28-0.5-0.2c-0.09,0.04-0.16,0.11-0.2,0.2 c-0.8,1.1-2.7,4-2.6,6.9l0,0c0,2.7,1.3,4.8,3,4.8l0,0C88.2,36,89.5,33.8,89.5,31.1z" fill="#FAFAFA"/>
    <path d="M100.8,31.1c0.1-2.9-1.8-5.8-2.6-6.9c-0.08-0.19-0.3-0.28-0.5-0.2c-0.09,0.04-0.16,0.11-0.2,0.2 c-0.8,1.1-2.7,4-2.6,6.9l0,0c0,2.7,1.3,4.8,3,4.8l0,0C99.4,36,100.8,33.8,100.8,31.1z" fill="#FAFAFA"/>
    <path d="M112,31.1c0.1-2.9-1.8-5.8-2.6-6.9c-0.08-0.19-0.3-0.28-0.5-0.2c-0.09,0.04-0.16,0.11-0.2,0.2 c-0.8,1.1-2.7,4-2.6,6.9l0,0c0,2.7,1.3,4.8,3,4.8l0,0C110.7,36,112,33.8,112,31.1z" fill="#FAFAFA"/>
    <path d="M67.9,87.8C92.4,85.77,111.43,65.58,112,41c0.03-0.52-0.36-0.97-0.88-1c-0.04,0-0.08,0-0.12,0h-4 c-0.55,0-1,0.45-1,1c-0.54,21.21-16.79,38.7-37.9,40.8c-0.55,0.06-1.04-0.35-1.09-0.89C67,80.87,67,80.84,67,80.8v-3 c0.02-0.51,0.4-0.92,0.9-1C86.35,74.85,100.5,59.54,101,41c0.03-0.52-0.36-0.97-0.88-1c-0.04,0-0.08,0-0.12,0h-4 c-0.55,0-1,0.45-1,1c-0.49,15.17-11.86,27.77-26.9,29.8c-0.55,0.06-1.04-0.35-1.09-0.89C67,69.87,67,69.84,67,69.8v-3 c0.02-0.51,0.4-0.92,0.9-1C80.24,63.87,89.5,53.48,90,41c0.03-0.52-0.36-0.97-0.88-1c-0.04,0-0.08,0-0.12,0h-3.6 c-0.9,0-1.3,0.4-1.4,1c-0.45,9.04-6.94,16.64-15.8,18.5c-0.54,0.11-1.07-0.24-1.18-0.78C67.01,58.65,67,58.57,67,58.5v-2.8 c0-0.8,0.3-1.2,0.8-1.3c6.21-1.63,10.7-7,11.2-13.4c0.06-0.55-0.35-1.04-0.89-1.09c-0.03,0-0.07-0.01-0.11-0.01h-3.7 c-0.9,0-1.3,0.4-1.4,0.9c-0.28,2.87-1.91,5.44-4.4,6.9c-0.48,0.28-1.09,0.11-1.37-0.37c-0.09-0.16-0.14-0.35-0.13-0.53V33 c0-0.55-0.45-1-1-1h-4c-0.54,0.04-0.96,0.46-1,1v13.9c0.02,0.55-0.41,1.01-0.97,1.03c-0.19,0.01-0.37-0.04-0.53-0.13 c-2.5-1.47-4.16-4.02-4.5-6.9c-0.05-0.51-0.48-0.9-1-0.9h-4c-0.55,0-1,0.44-1.01,0.99c0,0.04,0,0.07,0.01,0.11 c0.5,6.4,4.99,11.77,11.2,13.4c0.47,0.1,0.81,0.52,0.8,1v3.1c-0.03,0.58-0.52,1.04-1.11,1.01c-0.03,0-0.06,0-0.09-0.01 C50.97,57.63,44.52,50.04,44,41c0.03-0.52-0.36-0.97-0.88-1c-0.04,0-0.08,0-0.12,0h-4c-0.55,0-1,0.45-1,1 c0.48,12.47,9.76,22.84,22.1,24.7c0.5,0.08,0.88,0.49,0.9,1v2.7c0,0.9-0.5,1.4-1.1,1.3C44.91,68.65,33.56,56.12,33,41 c-0.04-0.54-0.46-0.96-1-1h-4c-0.55,0-1,0.45-1,1c0.5,18.54,14.65,33.85,33.1,35.8c0.5,0.08,0.88,0.49,0.9,1v2.7 c0,0.9-0.5,1.4-1.1,1.3C38.79,79.7,22.54,62.21,22,41c0-0.55-0.45-1-1-1h-4c-0.55,0-1,0.45-1,1c0.53,24.6,19.58,44.81,44.1,46.8 c0.51,0.05,0.9,0.48,0.9,1v12.3c0,0.55-0.45,1-1,1c-6.9,0.4-12.6,1.9-14.9,3.9c-1.42,1.23-3.22,1.94-5.1,2c-2.21,0-4,1.79-4,4h56 c0-2.21-1.79-4-4-4c-1.88-0.04-3.69-0.75-5.1-2c-2.3-2-8-3.5-14.9-3.9c-0.51-0.05-0.9-0.48-0.9-1V88.8c-0.06-0.49,0.28-0.93,0.77-1 C67.88,87.8,67.89,87.8,67.9,87.8z" fill="#FAFAFA"/>
    <path d="M39.7,12.9c0-2.3-1.6-3-10.8-2.7c-7.7,0.3-11.5,1.2-13.8,4 s-2.9,8.5-3,15.3c0,4.8,0,9.3,2.5,9.3c3.4,0,3.4-7.9,6.2-12.3C26.2,17.8,39.7,15.9,39.7,12.9z" opacity="0.65" fill="#B982CA" enable-background="new "/>
    <path d="M22,31.1c0.1-2.9-1.8-5.8-2.6-6.9c-0.08-0.19-0.3-0.28-0.5-0.2c-0.09,0.04-0.16,0.11-0.2,0.2 c-0.8,1.1-2.7,4-2.6,6.9l0,0c0,2.7,1.3,4.8,3,4.8l0,0C20.7,36,22,33.8,22,31.1z" fill="#FAFAFA"/>
    <path d="M39.7,12.9c0-2.3-1.6-3-10.8-2.7c-7.7,0.3-11.5,1.2-13.8,4 s-2.9,8.5-3,15.3c0,4.8,0,9.3,2.5,9.3c3.4,0,3.4-7.9,6.2-12.3C26.2,17.8,39.7,15.9,39.7,12.9z" opacity="0.3" fill="#B982CA" enable-background="new "/>
  </g>
</svg>

<svg viewBox="0 0 128 128" xmlns="http://www.w3.org/2000/svg">
  <defs/>
  <path d="M116,4 L12,4 C7.58,4 4,7.58 4,12 L4,116 C4,120.42 7.58,124 12,124 L116,124 C120.42,124 124,120.42 124,116 L124,12 C124,7.58 120.42,4 116,4 Z" fill="#8E24AA"/>
  <path d="M109.7,4 L11.5,4 C7.37,4.03 4.03,7.37 4,11.5 L4,109.4 C3.99,113.54 7.34,116.89 11.48,116.9 C11.49,116.9 11.49,116.9 11.5,116.9 L109.6,116.9 C113.74,116.91 117.09,113.56 117.1,109.42 C117.1,109.41 117.1,109.41 117.1,109.4 L117.1,11.5 C117.19,7.45 113.97,4.09 109.92,4 C109.85,4 109.77,4 109.7,4 Z" fill="#AB47BC"/>
  <path d="M33.2,31.1 C33.3,28.2 31.4,25.3 30.6,24.2 C30.52,24.01 30.3,23.92 30.1,24 C30.01,24.04 29.94,24.11 29.9,24.2 C29.1,25.3 27.2,28.2 27.3,31.1 L27.3,31.1 C27.3,33.8 28.6,35.9 30.3,35.9 L30.3,35.9 C31.9,36 33.3,33.8 33.2,31.1 Z" fill="#FAFAFA"/>
  <path d="M44.5,31.1 C44.6,28.2 42.7,25.3 41.9,24.2 C41.82,24.01 41.6,23.92 41.4,24 C41.31,24.04 41.24,24.11 41.2,24.2 C40.4,25.3 38.5,28.2 38.6,31.1 L38.6,31.1 C38.6,33.8 39.9,35.9 41.6,35.9 L41.6,35.9 C43.2,36 44.5,33.8 44.5,31.1 Z" fill="#FAFAFA"/>
  <path d="M55.8,31.1 C55.9,28.2 54,25.3 53.2,24.2 C53.12,24.01 52.9,23.92 52.7,24 C52.61,24.04 52.54,24.11 52.5,24.2 C51.7,25.3 49.8,28.2 49.9,31.1 L49.9,31.1 C49.9,33.8 51.2,35.9 52.9,35.9 L52.9,35.9 C54.4,36 55.8,33.8 55.8,31.1 Z" fill="#FAFAFA"/>
  <path d="M67,23.1 C67.1,20.2 65.2,17.3 64.4,16.2 C64.32,16.01 64.1,15.92 63.9,16 C63.81,16.04 63.74,16.11 63.7,16.2 C62.9,17.3 61,20.2 61.1,23.1 L61.1,23.1 C61.1,25.8 62.4,27.9 64.1,27.9 L64.1,27.9 C65.7,28 67,25.8 67,23.1 Z" fill="#FAFAFA"/>
  <path d="M78.2,31.1 C78.3,28.2 76.4,25.3 75.6,24.2 C75.52,24.01 75.3,23.92 75.1,24 C75.01,24.04 74.94,24.11 74.9,24.2 C74.1,25.3 72.2,28.2 72.3,31.1 L72.3,31.1 C72.3,33.8 73.6,35.9 75.3,35.9 L75.3,35.9 C76.9,36 78.3,33.8 78.2,31.1 Z" fill="#FAFAFA"/>
  <path d="M89.5,31.1 C89.6,28.2 87.7,25.3 86.9,24.2 C86.82,24.01 86.6,23.92 86.4,24 C86.31,24.04 86.24,24.11 86.2,24.2 C85.4,25.3 83.5,28.2 83.6,31.1 L83.6,31.1 C83.6,33.8 84.9,35.9 86.6,35.9 L86.6,35.9 C88.2,36 89.5,33.8 89.5,31.1 Z" fill="#FAFAFA"/>
  <path d="M100.8,31.1 C100.9,28.2 99,25.3 98.2,24.2 C98.12,24.01 97.9,23.92 97.7,24 C97.61,24.04 97.54,24.11 97.5,24.2 C96.7,25.3 94.8,28.2 94.9,31.1 L94.9,31.1 C94.9,33.8 96.2,35.9 97.9,35.9 L97.9,35.9 C99.4,36 100.8,33.8 100.8,31.1 Z" fill="#FAFAFA"/>
  <path d="M112,31.1 C112.1,28.2 110.2,25.3 109.4,24.2 C109.32,24.01 109.1,23.92 108.9,24 C108.81,24.04 108.74,24.11 108.7,24.2 C107.9,25.3 106,28.2 106.1,31.1 L106.1,31.1 C106.1,33.8 107.4,35.9 109.1,35.9 L109.1,35.9 C110.7,36 112,33.8 112,31.1 Z" fill="#FAFAFA"/>
  <path d="M67.9,87.8 C92.4,85.77 111.43,65.58 112,41 C112.03,40.48 111.64,40.03 111.12,40 C111.08,40 111.04,40 111,40 L107,40 C106.45,40 106,40.45 106,41 C105.46,62.21 89.21,79.7 68.1,81.8 C67.55,81.86 67.06,81.45 67.01,80.91 C67,80.87 67,80.84 67,80.8 L67,77.8 C67.02,77.29 67.4,76.88 67.9,76.8 C86.35,74.85 100.5,59.54 101,41 C101.03,40.48 100.64,40.03 100.12,40 C100.08,40 100.04,40 100,40 L96,40 C95.45,40 95,40.45 95,41 C94.51,56.17 83.14,68.77 68.1,70.8 C67.55,70.86 67.06,70.45 67.01,69.91 C67,69.87 67,69.84 67,69.8 L67,66.8 C67.02,66.29 67.4,65.88 67.9,65.8 C80.24,63.87 89.5,53.48 90,41 C90.03,40.48 89.64,40.03 89.12,40 C89.08,40 89.04,40 89,40 L85.4,40 C84.5,40 84.1,40.4 84,41 C83.55,50.04 77.06,57.64 68.2,59.5 C67.66,59.61 67.13,59.26 67.02,58.72 C67.01,58.65 67,58.57 67,58.5 L67,55.7 C67,54.9 67.3,54.5 67.8,54.4 C74.01,52.77 78.5,47.4 79,41 C79.06,40.45 78.65,39.96 78.11,39.91 C78.08,39.91 78.04,39.9 78,39.9 L74.3,39.9 C73.4,39.9 73,40.3 72.9,40.8 C72.62,43.67 70.99,46.24 68.5,47.7 C68.02,47.98 67.41,47.81 67.13,47.33 C67.04,47.17 66.99,46.98 67,46.8 L67,33 C67,32.45 66.55,32 66,32 L62,32 C61.46,32.04 61.04,32.46 61,33 L61,46.9 C61.02,47.45 60.59,47.91 60.03,47.93 C59.84,47.94 59.66,47.89 59.5,47.8 C57,46.33 55.34,43.78 55,40.9 C54.95,40.39 54.52,40 54,40 L50,40 C49.45,40 49,40.44 48.99,40.99 C48.99,41.03 48.99,41.06 49,41.1 C49.5,47.5 53.99,52.87 60.2,54.5 C60.67,54.6 61.01,55.02 61,55.5 L61,58.6 C60.97,59.18 60.48,59.64 59.89,59.61 C59.86,59.61 59.83,59.61 59.8,59.6 C50.97,57.63 44.52,50.04 44,41 C44.03,40.48 43.64,40.03 43.12,40 C43.08,40 43.04,40 43,40 L39,40 C38.45,40 38,40.45 38,41 C38.48,53.47 47.76,63.84 60.1,65.7 C60.6,65.78 60.98,66.19 61,66.7 L61,69.4 C61,70.3 60.5,70.8 59.9,70.7 C44.91,68.65 33.56,56.12 33,41 C32.96,40.46 32.54,40.04 32,40 L28,40 C27.45,40 27,40.45 27,41 C27.5,59.54 41.65,74.85 60.1,76.8 C60.6,76.88 60.98,77.29 61,77.8 L61,80.5 C61,81.4 60.5,81.9 59.9,81.8 C38.79,79.7 22.54,62.21 22,41 C22,40.45 21.55,40 21,40 L17,40 C16.45,40 16,40.45 16,41 C16.53,65.6 35.58,85.81 60.1,87.8 C60.61,87.85 61,88.28 61,88.8 L61,101.1 C61,101.65 60.55,102.1 60,102.1 C53.1,102.5 47.4,104 45.1,106 C43.68,107.23 41.88,107.94 40,108 C37.79,108 36,109.79 36,112 L92,112 C92,109.79 90.21,108 88,108 C86.12,107.96 84.31,107.25 82.9,106 C80.6,104 74.9,102.5 68,102.1 C67.49,102.05 67.1,101.62 67.1,101.1 L67.1,88.8 C67.04,88.31 67.38,87.87 67.87,87.8 C67.88,87.8 67.89,87.8 67.9,87.8 Z" fill="#FAFAFA"/>
  <path d="M39.7,12.9 C39.7,10.6 38.1,9.9 28.9,10.2 C21.2,10.5 17.4,11.4 15.1,14.2 C12.8,17 12.2,22.7 12.1,29.5 C12.1,34.3 12.1,38.8 14.6,38.8 C18,38.8 18,30.9 20.8,26.5 C26.2,17.8 39.7,15.9 39.7,12.9 Z" fill="#B982CA" opacity="0.65"/>
  <path d="M22,31.1 C22.1,28.2 20.2,25.3 19.4,24.2 C19.32,24.01 19.1,23.92 18.9,24 C18.81,24.04 18.74,24.11 18.7,24.2 C17.9,25.3 16,28.2 16.1,31.1 L16.1,31.1 C16.1,33.8 17.4,35.9 19.1,35.9 L19.1,35.9 C20.7,36 22,33.8 22,31.1 Z" fill="#FAFAFA"/>
  <path d="M39.7,12.9 C39.7,10.6 38.1,9.9 28.9,10.2 C21.2,10.5 17.4,11.4 15.1,14.2 C12.8,17 12.2,22.7 12.1,29.5 C12.1,34.3 12.1,38.8 14.6,38.8 C18,38.8 18,30.9 20.8,26.5 C26.2,17.8 39.7,15.9 39.7,12.9 Z" fill="#B982CA" opacity="0.3"/>
</svg>
